src/assets/img/htmlIcon.svg

<svg width="55" height="60" viewBox="0 0 55 60" fill="none" xmlns="http://www.w3.org/2000/svg">
<path d="M27.6676 48.534L41.5276 44.766L43.3966 24.432H18.7456L18.1336 17.67H44.0116L44.6926 11.037H10.6426L12.5506 31.071H36.0106L35.2276 39.669L27.6676 41.67L20.1076 39.669L19.6336 34.137H12.8236L13.8106 44.769L27.6676 48.534ZM0.667603 0H54.6676L49.7986 54L27.6676 60L5.5366 54L0.667603 0Z" fill="white"/>
</svg>

<svg width="55" height="60" fill="none" xmlns="http://www.w3.org/2000/svg"><path d="m27.668 48.534 13.86-3.768 1.869-20.334H18.746l-.612-6.762h25.878l.68-6.633h-34.05l1.909 20.034h23.46l-.783 8.598-7.56 2.001-7.56-2.001-.474-5.532h-6.81l.987 10.632 13.857 3.765ZM.668 0h54l-4.87 54-22.13 6-22.131-6L.667 0Z" fill="#fff"/></svg>
